X: 42
T: Lango Lee
%R: jig
B: "The Hibernian Muse" p.26 #1
F: http://imslp.org/wiki/The_Hibernian_Muse_%28Various%29
Z: 2015 John Chambers <jc:trillian.mit.edu>
N: The 2nd strain has initial repeat but no final repeat; not fixed.
P: No. XLII.
M: 6/8
L: 1/8
K: G
% - - - - - - - - - - - - - - - - - - - - - - - - - - - - -
V: 1
D |\
D>EF G>AB | c>ed cBA | BGE DGA | B>cA G2D |\
D>EF G>AB | ced cBA | BGE DGA | B>cA G2 :|
c |\
B2c d2d | e>dc dBG | Bcd efg | G>AG FED |\
cec BdB | A>GA BGE | GFE Ddc | B>cA G2 |]
% - - - - - - - - - - - - - - - - - - - - - - - - - - - - -
V: 2 clef=bass middle=d
z | d2c B>AG | c3 d3 | e2c B2c | d2D G2z |\
d2c B>AG | c3 d3 | e2c B2c | e2D G2 :|
d |\
g2a b2g | c'3 b3 | g3 c'3 | b3 d3 |\
f3 g3 | f3 e3 | edc B2c | d2D G2 |]

%%sep 2 1 500
%%sep 1 1 500

